assets/icons/trash-open.svg

<svg width="24" height="24" viewBox="0 0 24 24" xmlns="http://www.w3.org/2000/svg" xmlns:xlink="http://www.w3.org/1999/xlink">
  <defs>
    <path id="path-1" d="M0 0.0279267034L19.3783497 0.0279267034 19.3783497 23.6953847 0 23.6953847z"/>
  </defs>
  <g id="Styleguide" fill="none" fill-rule="evenodd">
    <g id="Base-Style---Icons" transform="translate(-420 -928)">
      <g id="Trash-Open" transform="translate(397 928)">
        <g id="trash-open" transform="translate(25)">
          <path d="M9.7970222,11.847777 L9.7970222,18.6178869 C9.7970222,19.0858707 10.1695706,19.4641506 10.6304638,19.4641506 C11.0913569,19.4641506 11.4639053,19.0858707 11.4639053,18.6178869 L11.4639053,11.847777 C11.4639053,11.3806394 11.0913569,11.0015132 10.6304638,11.0015132 C10.1695706,11.0015132 9.7970222,11.3806394 9.7970222,11.847777" id="Fill-1" fill="#999"/>
          <path d="M6.46325596,11.847777 L6.46325596,18.6178869 C6.46325596,19.0858707 6.83580434,19.4641506 7.29669752,19.4641506 C7.7575907,19.4641506 8.13013908,19.0858707 8.13013908,18.6178869 L8.13013908,11.847777 C8.13013908,11.3806394 7.7575907,11.0015132 7.29669752,11.0015132 C6.83580434,11.0015132 6.46325596,11.3806394 6.46325596,11.847777" id="Fill-3" fill="#999"/>
          <path d="M13.1307884,11.847777 L13.1307884,18.6178869 C13.1307884,19.0858707 13.5033368,19.4641506 13.96423,19.4641506 C14.4251232,19.4641506 14.7976716,19.0858707 14.7976716,18.6178869 L14.7976716,11.847777 C14.7976716,11.3806394 14.4251232,11.0015132 13.96423,11.0015132 C13.5033368,11.0015132 13.1307884,11.3806394 13.1307884,11.847777" id="Fill-5" fill="#999"/>
          <g id="Group-9">
            <mask id="mask-2" fill="#fff">
              <use xlink:href="#path-1"/>
            </mask>
            <path d="M7.16643061,3.2247726 L11.9962245,1.91052502 L12.4096115,3.47611293 L7.57981762,4.79036052 L7.16643061,3.2247726 Z M19.3496793,2.4639815 C19.2321641,2.01207667 18.7746047,1.74381106 18.3295469,1.86567304 L14.0189871,3.03774832 L13.3905722,0.654669628 C13.3330647,0.438026111 13.1930465,0.253540616 13.0021884,0.140987539 C12.8096634,0.0284344616 12.5813004,-0.00203103297 12.3696063,0.056361165 L5.93043677,1.80897337 C5.48537898,1.92998908 5.22201144,2.39458788 5.34119359,2.84564645 L5.96960852,5.22787887 L0.618080262,6.68429877 C0.173022468,6.80531448 -0.0903450652,7.26906701 0.028837078,7.72012558 C0.128016624,8.09840547 0.464727014,8.34805328 0.832274743,8.34805328 C0.903950717,8.34805328 0.976460133,8.33874438 1.04896955,8.31928031 L3.12923968,7.75312987 L3.12923968,22.8487824 C3.12923968,23.3167663 3.5026215,23.6950462 3.96268125,23.6950462 L17.2977462,23.6950462 C17.7586394,23.6950462 18.1311878,23.3167663 18.1311878,22.8487824 L18.1311878,7.61603514 C18.1311878,7.14889756 17.7586394,6.7697714 17.2977462,6.7697714 C16.8376865,6.7697714 16.4643047,7.14889756 16.4643047,7.61603514 L16.4643047,22.0025187 L4.79612281,22.0025187 L4.79612281,7.61603514 C4.79612281,7.50940591 4.771953,7.40954679 4.73694846,7.31561152 L6.90472996,6.72576569 C6.9397345,6.72999701 6.97223872,6.74269097 7.00807671,6.74269097 C7.07975268,6.74269097 7.15142866,6.73338206 7.22393807,6.713918 C7.33895301,6.68260624 7.43979944,6.62675283 7.5273108,6.55651294 L13.3238969,4.97907733 C13.4347446,4.99600261 13.5497595,4.99261755 13.663941,4.96130579 C13.7781225,4.92999404 13.8798024,4.87498689 13.9664803,4.804747 L18.7604362,3.49980832 C19.2046605,3.3787926 19.4688615,2.91504007 19.3496793,2.4639815 L19.3496793,2.4639815 Z" id="Fill-7" fill="#999" mask="url(#mask-2)"/>
          </g>
        </g>
      </g>
    </g>
  </g>
</svg>

<svg width="24" height="24" viewBox="0 0 24 24" xmlns="http://www.w3.org/2000/svg" xmlns:xlink="http://www.w3.org/1999/xlink">
  <defs>
    <path id="a" d="M0 .028h19.378v23.667H0z"/>
  </defs>
  <g fill="none" fill-rule="evenodd">
    <path d="M11.797 11.848v6.77a.84.84 0 0 0 .833.846.84.84 0 0 0 .834-.846v-6.77a.84.84 0 0 0-.834-.846.84.84 0 0 0-.833.846m-3.334 0v6.77a.84.84 0 0 0 .834.846.84.84 0 0 0 .833-.846v-6.77a.84.84 0 0 0-.833-.846.84.84 0 0 0-.834.846m6.668 0v6.77a.84.84 0 0 0 .833.846.84.84 0 0 0 .834-.846v-6.77a.84.84 0 0 0-.834-.846.84.84 0 0 0-.833.846" fill="#999"/>
    <g transform="translate(2)">
      <mask id="b" fill="#fff">
        <use xlink:href="#a"/>
      </mask>
      <path d="M7.166 3.225l4.83-1.314.414 1.565L7.58 4.79l-.414-1.565zm12.184-.761a.83.83 0 0 0-1.02-.598l-4.311 1.172-.628-2.383a.849.849 0 0 0-.389-.514.822.822 0 0 0-.632-.085L5.93 1.81a.848.848 0 0 0-.589 1.037l.629 2.382L.618 6.684a.847.847 0 0 0-.59 1.036.835.835 0 0 0 1.021.6l2.08-.567V22.85a.84.84 0 0 0 .834.846h13.335a.84.84 0 0 0 .833-.846V7.616a.84.84 0 0 0-.833-.846.84.84 0 0 0-.834.846v14.387H4.796V7.616a.856.856 0 0 0-.06-.3l2.169-.59c.035.004.067.017.103.017a.828.828 0 0 0 .52-.186l5.796-1.578a.814.814 0 0 0 .642-.174L18.76 3.5a.847.847 0 0 0 .59-1.036z" fill="#999" mask="url(#b)"/>
    </g>
  </g>
</svg>
